packages/katcn/src/icons/svg/copy-solid.svg

<svg xmlns="http://www.w3.org/2000/svg" fill="none" viewBox="0 0 24 24"><path fill="#000" d="M15.3 5.3H5.5C3.5 5.3 2 6.8 2 8.7v9.8c0 2 1.5 3.5 3.5 3.5h9.8c1.9 0 3.5-1.5 3.5-3.5V8.7c-.1-1.9-1.6-3.4-3.5-3.4"/><path fill="#000" d="M17.7 2H7.1c-.6 0-1 .4-1 1s.4 1 1 1h10.6C19 4 20 5 20 6.3v10.6c0 .6.4 1 1 1s1-.4 1-1V6.3C22 3.9 20.1 2 17.7 2"/></svg>

<svg width="24" height="24" viewBox="0 0 24 24" fill="none" xmlns="http://www.w3.org/2000/svg">
<path d="M15.3 5.3H5.5C3.5 5.3 2 6.8 2 8.7V18.5C2 20.5 3.5 22 5.5 22H15.3C17.2 22 18.8 20.5 18.8 18.5V8.7C18.7 6.8 17.2 5.3 15.3 5.3Z" fill="black"/>
<path d="M17.7 2H7.10001C6.50001 2 6.10001 2.4 6.10001 3C6.10001 3.6 6.50001 4 7.10001 4H17.7C19 4 20 5 20 6.3V16.9C20 17.5 20.4 17.9 21 17.9C21.6 17.9 22 17.5 22 16.9V6.3C22 3.9 20.1 2 17.7 2Z" fill="black"/>
</svg>
